X: 55
T: No_148_We_Must_Run.krn
N: Derived from No_148_We_Must_Run.krn
%%abc-version 2.0
%%abcx-abcm2ps-target-version 5.9.1 (29 Sep 2008)
%%abc-creator hum2abc beta
%%abcx-conversion-date 2019/03/15 08:37:56
%%humdrum-veritas 356497884
%%humdrum-veritas-data 1551139444
%%linebreak <none>
%%barnumbers 0
L: 1/8
M: 2/4
K: A clef=bass
[K:clef=bass][M:2/4]E,2E,3/E,/ | 
C2B,2 ||  
[M:3/4]A,4E,2 ||  
[M:2/4]B,2B,3/B,/ | 
B,2A,3/F,/ | 
A,3F, | 
A,/A,3/ A,3/F,/ | 
E,2D,2 ||  
[M:3/4](D,4B,,) z ||  
[M:2/4]D,2B,,3/E,/ | 
E,E, B,,3/E,/ | 
E,2E,/E,3/ ||  
[M:3/4]E,4z2 ||  
[M:2/4]A,3/A,/ F,3/B,/ | 
B,B, F,3/B,/ | 
B,2B,3/B,/ ||  
[M:3/4]A,3/A,/A,2A,3/F,/ ||  
[M:2/4]A,2A,3/F,/ | 
E,3/E,/D,2 ||  
[M:3/4]D,4B,, z ||  
[M:2/4]A,3A, | 
A,2E,3/E,/ | 
B,,2E,3/E,/ | 
E,2D,2 | 
(3E,E,E,E,2 ||  
[M:3/4]E,4z2 ||  
[M:2/4]A,A, F,3/B,/ | 
B,/B,3/ F,3/B,/ | 
B,2B,3/B,/ | 
A,2A,3/A,/ | 
A,2G,3/F,/ | 
E,2D,/D,3/ ||  
[M:3/4]D,4B,, z ||  
[M:2/4]D,2B,,3/E,/ | 
E,E, D,3/E,/ | 
(3E,E,E, E,E, | 
E,4 |]  



